X: 6667
T: Ceitidh's
R: strathspey
M: 4/4
K: Gmajor
E>G E<D E<G B2|A>B A<G F>G A<G|E>G E<D E<G B2|d2 e<B A>B A<G:|
|:A4- AG/A/ BA/G/|G<E- E4 z E/D/ c<B|A4-AG/A/ B(3A/G/E/|1 G4-G z/ E/ c<B:|2 G4-GA/B/ A/G/E/D/||

